X: 32733
T: Polly Put The Kettle On
R: strathspey
M: 4/4
K: Gmajor
|:BGcA BGGB|cEA>G FDDc|BGcA BGGB|E/E/E FD G4:|
|:d>edc BGGB|cEA>G FDDB|d>edc BGGB|E/E/E FD G4:|

